packages/icons/src/assets/generative-pencil.svg

<svg xmlns="http://www.w3.org/2000/svg" width="16" height="16" viewBox="0 0 16 16"><path fill-rule="evenodd" clip-rule="evenodd" d="M11.5127 2.0004C12.1733 2.00053 12.8079 2.26155 13.2764 2.72696C13.7433 3.19981 14.0037 3.83912 14 4.50333C13.9961 5.16736 13.7289 5.80343 13.2568 6.27091L12.3691 7.14591L6.39159 13.1186L2.78515 14.8705C2.61517 14.9554 2.42635 15.0003 2.23632 15.0004C2.02639 14.9972 1.82049 14.9405 1.63769 14.8373C1.45482 14.734 1.30047 14.5868 1.18945 14.4086C1.07841 14.2303 1.0139 14.0264 1.00195 13.8168C0.990064 13.6073 1.03111 13.398 1.12109 13.2084L2.87499 9.60489L9.74902 2.72696C10.2175 2.26152 10.852 2.0005 11.5127 2.0004ZM2.24706 13.7455L5.50487 12.1928L3.80175 10.4906L2.24706 13.7455ZM4.63769 9.60489L6.39159 11.3568L11.4834 6.25137L9.74902 4.51895L4.63769 9.60489ZM11.4834 3.24454C11.1607 3.25073 10.8524 3.383 10.626 3.6127L12.3896 5.37442C12.5054 5.25902 12.5974 5.12196 12.6601 4.9711C12.7229 4.82004 12.7558 4.65711 12.7559 4.49356C12.7558 4.3301 12.7229 4.16799 12.6601 4.017C12.5974 3.86596 12.5055 3.72822 12.3896 3.6127C12.2725 3.49216 12.1313 3.39677 11.9756 3.33341C11.8197 3.27009 11.6516 3.2399 11.4834 3.24454Z"/><path d="M11.96 10.3725C12.1275 9.90711 12.773 9.87793 13 10.2856L13.0391 10.3725L13.0439 10.3871L13.0644 10.4672L13.0684 10.4828L13.1094 10.7426C13.2045 11.3316 13.6675 11.7947 14.2568 11.89L14.5156 11.932L14.5322 11.935L14.6123 11.9565L14.6279 11.9604C15.1239 12.1392 15.1245 12.8628 14.6279 13.0414C14.6227 13.0433 14.6167 13.045 14.6113 13.0463L14.5312 13.0658C14.5268 13.0669 14.5211 13.068 14.5166 13.0688L14.2568 13.1107C13.6675 13.206 13.2046 13.6692 13.1094 14.2582L13.0684 14.517L13.0674 14.518C13.018 14.8174 12.7839 14.9798 12.5469 14.9984C12.3144 15.0166 12.0568 14.8973 11.96 14.6274C11.9584 14.623 11.9563 14.6182 11.9551 14.6137L11.9346 14.5346C11.9331 14.5292 11.9306 14.5225 11.9297 14.517L11.8896 14.2582L11.8672 14.1488C11.7356 13.6126 11.2946 13.2 10.7422 13.1107L10.4824 13.0688C9.84155 12.9628 9.83774 12.0382 10.4824 11.932L10.7422 11.89C11.3316 11.7948 11.7946 11.3317 11.8896 10.7426L11.9297 10.4848L11.9346 10.4672L11.9551 10.3871C11.9563 10.3823 11.9583 10.3771 11.96 10.3725Z"/><path d="M2.76366 1.33536C2.91433 0.916344 3.49586 0.890309 3.70019 1.25723L3.73534 1.33536L3.73925 1.34805L3.75878 1.42032L3.76171 1.43497L3.79882 1.66837C3.88441 2.19848 4.30069 2.61574 4.83105 2.70157L5.06445 2.73868L5.07909 2.74161L5.15136 2.76016L5.16503 2.76407C5.61153 2.92486 5.61193 3.57591 5.16503 3.73673C5.16042 3.73837 5.15515 3.7404 5.15038 3.74161L5.07812 3.75919C5.07414 3.76016 5.06946 3.76146 5.06542 3.76212L4.83105 3.8002C4.30076 3.886 3.88452 4.30243 3.79882 4.83243L3.76171 5.06485L3.76073 5.06583C3.71639 5.33554 3.5054 5.48162 3.29198 5.49844C3.08284 5.51469 2.8508 5.40736 2.76366 5.16446C2.7622 5.16048 2.76083 5.15583 2.75976 5.15176L2.7412 5.08048L2.7373 5.06485L2.70019 4.83243L2.68066 4.73477C2.5624 4.25195 2.16522 3.88061 1.66796 3.8002L1.43359 3.76212C0.857154 3.6666 0.853767 2.83449 1.43359 2.73868L1.66796 2.70157C2.1985 2.61584 2.6146 2.19858 2.70019 1.66837L2.7373 1.43594L2.7412 1.42032L2.75976 1.34805C2.76091 1.34387 2.76221 1.33943 2.76366 1.33536Z"/></svg>

<svg xmlns="http://www.w3.org/2000/svg" width="16" height="16" viewBox="0 0 16 16"><path fill-rule="evenodd" d="M11.513 2c.66 0 1.295.262 1.763.727a2.51 2.51 0 0 1-.02 3.544l-.887.875-5.977 5.973-3.607 1.752c-.17.084-.359.13-.549.13a1.258 1.258 0 0 1-1.115-1.793l1.754-3.603 6.874-6.878A2.5 2.5 0 0 1 11.513 2M2.247 13.746l3.258-1.553-1.703-1.702zm2.39-4.141 1.755 1.752 5.091-5.106L9.75 4.52zm6.846-6.36a1.24 1.24 0 0 0-.857.368l1.764 1.761a1.243 1.243 0 0 0 0-1.761 1.22 1.22 0 0 0-.907-.368"/><path d="M11.96 10.373c.167-.466.813-.495 1.04-.087l.04.087.004.014.02.08.004.016.041.26a1.39 1.39 0 0 0 1.148 1.147l.259.042.016.003.08.021.016.004c.496.18.496.903 0 1.081l-.017.005-.08.02-.014.003-.26.042a1.39 1.39 0 0 0-1.148 1.147l-.04.259-.002.001a.56.56 0 0 1-.52.48.57.57 0 0 1-.587-.37l-.005-.014-.02-.08-.005-.017-.04-.259-.023-.11a1.39 1.39 0 0 0-1.125-1.037l-.26-.042c-.64-.106-.644-1.03 0-1.137l.26-.042a1.39 1.39 0 0 0 1.148-1.147l.04-.258.005-.018.02-.08zM2.764 1.335c.15-.419.732-.445.936-.078l.035.078.004.013.02.072.003.015.037.233c.085.53.502.948 1.032 1.034l.233.037.015.003.072.018.014.004c.447.16.447.812 0 .973l-.015.005-.072.017-.013.003-.234.038c-.53.086-.946.502-1.032 1.032l-.037.233H3.76a.51.51 0 0 1-.469.433.51.51 0 0 1-.532-.346L2.74 5.08l-.004-.015-.037-.233-.02-.097a1.25 1.25 0 0 0-1.01-.935l-.234-.038c-.577-.095-.58-.928 0-1.023l.234-.037c.53-.086.947-.503 1.032-1.034l.037-.232.004-.016.019-.072z"/></svg>
